svg/building/tent_line.svg

<?xml version="1.0" encoding="UTF-8"?>
<svg width="24px" height="24px" viewBox="0 0 24 24" version="1.1" xmlns="http://www.w3.org/2000/svg" xmlns:xlink="http://www.w3.org/1999/xlink">
    <title>tent_line</title>
    <g id="Icon" stroke="none" stroke-width="1" fill="none" fill-rule="evenodd">
        <g id="Building" transform="translate(-480.000000, -192.000000)">
            <g id="tent_line" transform="translate(480.000000, 192.000000)">
                <path d="M24,0 L24,24 L0,24 L0,0 L24,0 Z M12.5935,23.2578 L12.5819,23.2595 L12.5109,23.295 L12.4919,23.2987 L12.4767,23.295 L12.4057,23.2595 C12.3958,23.2564 12.387,23.259 12.3821,23.2649 L12.378,23.2758 L12.3609,23.7031 L12.3659,23.7235 L12.3769,23.7357 L12.4805,23.8097 L12.4953,23.8136 L12.5071,23.8097 L12.6107,23.7357 L12.6233,23.7197 L12.6267,23.7031 L12.6096,23.2758 C12.6076,23.2657 12.601,23.2593 12.5935,23.2578 Z M12.8584,23.1453 L12.8445,23.1473 L12.6598,23.2397 L12.6499,23.2499 L12.6472,23.2611 L12.6651,23.6906 L12.6699,23.7034 L12.6784,23.7105 L12.8793,23.8032 C12.8914,23.8069 12.9022,23.803 12.9078,23.7952 L12.9118,23.7812 L12.8777,23.1665 C12.8753,23.1546 12.8674,23.147 12.8584,23.1453 Z M12.143,23.1473 C12.1332,23.1424 12.1222,23.1453 12.1156,23.1526 L12.1099,23.1665 L12.0758,23.7812 C12.0751,23.7927 12.0828,23.8019 12.0926,23.8046 L12.1083,23.8032 L12.3092,23.7105 L12.3186,23.7024 L12.3225,23.6906 L12.3404,23.2611 L12.3372,23.2485 L12.3278,23.2397 L12.143,23.1473 Z" id="MingCute" fill-rule="nonzero"></path>
                <path d="M15.0000026,4 L9.00000257,4 C8.74895,4 8.5195,4.09252 8.34389,4.24531 C8.2953,4.28755 8.25064,4.33458 8.2107,4.38592 C8.15381,4.45894 8.10683,4.54006 8.07178,4.62726 L2.08086,18.6061 C1.94845,18.915 1.98012,19.2699 2.16516,19.5505 C2.35021,19.8311 2.66386,20 3.00000257,20 L21.0000026,20 C21.3361,20 21.6498,19.8311 21.8348,19.5505 C22.0199,19.2699 22.0516,18.915 21.9191,18.6061 L15.9191,4.60608 C15.7616,4.2384 15.4,4 15.0000026,4 Z M10,18 L10,15 C10,14.4477 9.55229,14 9,14 C8.44772,14 8,14.4477 8,15 L8,18 L4.51654,18 L9,7.53859 L13.4835,18 L10,18 Z M15.6594,18 L10.5165,6 L14.3406,6 L19.4835,18 L15.6594,18 Z" id="形状" fill="#09244B"></path>
            </g>
        </g>
    </g>
</svg>

<svg xmlns="http://www.w3.org/2000/svg" width="24" height="24"><g fill="none" fill-rule="evenodd"><path d="M24 0v24H0V0h24ZM12.594 23.258l-.012.002-.071.035-.02.004-.014-.004-.071-.036c-.01-.003-.019 0-.024.006l-.004.01-.017.428.005.02.01.013.104.074.015.004.012-.004.104-.074.012-.016.004-.017-.017-.427c-.002-.01-.009-.017-.016-.018Zm.264-.113-.014.002-.184.093-.01.01-.003.011.018.43.005.012.008.008.201.092c.012.004.023 0 .029-.008l.004-.014-.034-.614c-.003-.012-.01-.02-.02-.022Zm-.715.002a.023.023 0 0 0-.027.006l-.006.014-.034.614c0 .012.007.02.017.024l.015-.002.201-.093.01-.008.003-.011.018-.43-.003-.012-.01-.01-.184-.092Z"/><path fill="#09244B" d="M15 4H9a.996.996 0 0 0-.928.627L2.08 18.607A1 1 0 0 0 3 20h18a1 1 0 0 0 .92-1.394l-6-14A1 1 0 0 0 15 4Zm-5 14v-3a1 1 0 1 0-2 0v3H4.517L9 7.539 13.483 18H10Zm5.66 0L10.516 6h3.824l5.143 12h-3.825Z"/></g></svg>
